packages/ociogen/ociogen-0.2.4.tar.gz/ociogen-0.2.4/OpenDRT_v1.0.0_full-config_v4/transfer_functions/eotf_st2084_to_linear.spi1d
Version 1
From 0.0 1.2
Length 8192
Components 1
{
0.0
1.5e-08
5.1e-08
1.03e-07
1.69e-07
2.48e-07
3.38e-07
4.38e-07
5.5e-07
6.72e-07
8.03e-07
9.44e-07
1.094e-06
1.254e-06
1.423e-06
1.6e-06
1.787e-06
1.982e-06
2.186e-06
2.399e-06
2.62e-06
2.849e-06
3.087e-06
3.334e-06
3.589e-06
3.852e-06
4.123e-06
4.403e-06
4.691e-06
4.987e-06
5.291e-06
5.604e-06
5.925e-06
6.254e-06
6.591e-06
6.936e-06
7.29e-06
7.651e-06
8.021e-06
8.399e-06
8.785e-06
9.179e-06
9.582e-06
9.992e-06
1.0411e-05
1.0838e-05
1.1273e-05
1.1716e-05
1.2168e-05
1.2628e-05
1.3096e-05
1.3572e-05
1.4056e-05
1.4549e-05
1.505e-05
1.5559e-05
1.6077e-05
1.6603e-05
1.7137e-05
1.7679e-05
1.823e-05
1.879e-05
1.9357e-05
1.9933e-05
2.0518e-05
2.1111e-05
2.1712e-05
2.2322e-05
2.294e-05
2.3567e-05
2.4202e-05
2.4846e-05
2.5499e-05
2.616e-05
2.683e-05
2.7508e-05
2.8195e-05
2.889e-05
2.9595e-05
3.0308e-05
3.1029e-05
3.176e-05
3.2499e-05
3.3247e-05
3.4004e-05
3.4769e-05
3.5544e-05
3.6327e-05
3.7119e-05
3.792e-05
3.873e-05
3.9549e-05
4.0377e-05
4.1214e-05
4.206e-05
4.2915e-05
4.378e-05
4.4653e-05
4.5535e-05
4.6427e-05
4.7328e-05
4.8237e-05
4.9157e-05
5.0085e-05
5.1022e-05
5.1969e-05
5.2926e-05
5.3891e-05
5.4866e-05
5.585e-05
5.6844e-05
5.7847e-05
5.886e-05
5.9882e-05
6.0913e-05
6.1955e-05
6.3005e-05
6.4066e-05
6.5135e-05
6.6215e-05
6.7304e-05
6.8403e-05
6.9512e-05
7.063e-05
7.1758e-05
7.2896e-05
7.4044e-05
7.5201e-05
7.6369e-05
7.7546e-05
7.8733e-05
7.9931e-05
8.1138e-05
8.2355e-05
8.3582e-05
8.482e-05
8.6067e-05
8.7325e-05
8.8592e-05
8.987e-05
9.1158e-05
9.2456e-05
9.3765e-05
9.5083e-05
9.6413e-05
9.7752e-05
9.9102e-05
0.000100462
0.000101832
0.000103213
0.000104605
0.000106007
0.000107419
0.000108842
0.000110276
0.00011172
0.000113175
0.000114641
0.000116117
0.000117604
0.000119102
0.00012061
0.00012213
0.00012366
0.000125201
0.000126753
0.000128316
0.00012989
0.000131475
0.00013307
0.000134677
0.000136295
0.000137924
0.000139565
0.000141216
0.000142879
0.000144552
0.000146237
0.000147934
0.000149641
0.00015136
0.000153091
0.000154832
0.000156586
0.00015835
0.000160126
0.000161914
0.000163713
0.000165524
0.000167347
0.000169181
0.000171026
0.000172884
0.000174753
0.000176634
0.000178527
0.000180431
0.000182348
0.000184276
0.000186216
0.000188168
0.000190132
0.000192109
0.000194097
0.000196097
0.00019811
0.000200134
0.000202171
0.00020422
0.000206281
0.000208354
0.00021044
0.000212538
0.000214649
0.000216771
0.000218907
0.000221054
0.000223214
0.000225387
0.000227572
0.00022977
0.000231981
0.000234204
0.000236439
0.000238688
0.000240949
0.000243223
0.00024551
0.00024781
0.000250122
0.000252448
0.000254786
0.000257137
0.000259502
0.000261879
0.00026427
0.000266673
0.00026909
0.00027152
0.000273963
0.000276419
0.000278889
0.000281372
0.000283868
0.000286378
0.000288901
0.000291437
0.000293987
0.000296551
0.000299128
0.000301718
0.000304322
0.00030694
0.000309572
0.000312217
0.000314876
0.000317549
0.000320235
0.000322936
0.00032565
0.000328378
0.00033112
0.000333877
0.000336647
0.000339431
0.000342229
0.000345042
0.000347868
0.000350709
0.000353564
0.000356433
0.000359317
0.000362215
0.000365127
0.000368054
0.000370995
0.000373951
0.000376921
0.000379905
0.000382905
0.000385919
0.000388947
0.00039199
0.000395048
0.000398121
0.000401208
0.000404311
0.000407428
0.00041056
0.000413707
0.000416869
0.000420046
0.000423238
0.000426445
0.000429668
0.000432905
0.000436158
0.000439425
0.000442709
0.000446007
0.000449321
0.00045265
0.000455994
0.000459354
0.00046273
0.000466121
0.000469528
0.00047295
0.000476388
0.000479841
0.00048331
0.000486795
0.000490296
0.000493812
0.000497345
0.000500893
0.000504457
0.000508038
0.000511634
0.000515246
0.000518874
0.000522519
0.00052618
0.000529856
0.00053355
0.000537259
0.000540985
0.000544727
0.000548485
0.00055226
0.000556051
0.000559859
0.000563683
0.000567524
0.000571382
0.000575256
0.000579147
0.000583055
0.000586979
0.000590921
0.000594879
0.000598854
0.000602846
0.000606855
0.000610881
0.000614924
0.000618984
0.000623061
0.000627155
0.000631267
0.000635396
0.000639542
0.000643705
0.000647886
0.000652085
0.0006563
0.000660534
0.000664784
0.000669053
0.000673338
0.000677642
0.000681963
0.000686302
0.000690659
0.000695034
0.000699426
0.000703836
0.000708265
0.000712711
0.000717175
0.000721657
0.000726158
0.000730676
0.000735213
0.000739768
0.000744341
0.000748933
0.000753543
0.000758171
0.000762817
0.000767483
0.000772166
0.000776868
0.000781589
0.000786329
0.000791087
0.000795864
0.000800659
0.000805474
0.000810307
0.000815159
0.00082003
0.00082492
0.000829829
0.000834757
0.000839704
0.000844671
0.000849656
0.000854661
0.000859685
0.000864729
0.000869791
0.000874873
0.000879975
0.000885096
0.000890237
0.000895397
0.000900576
0.000905776
0.000910995
0.000916234
0.000921493
0.000926771
0.000932069
0.000937388
0.000942726
0.000948084
0.000953463
0.000958861
0.00096428
0.000969718
0.000975177
0.000980656
0.000986156
0.000991676
0.000997216
0.001002777
0.001008358
0.00101396
0.001019583
0.001025226
0.001030889
0.001036574
0.001042279
0.001048005
0.001053752
0.00105952
0.001065308
0.001071118
0.001076949
0.001082801
0.001088673
0.001094568
0.001100483
0.00110642
0.001112377
0.001118357
0.001124357
0.001130379
0.001136423
0.001142488
0.001148575
0.001154683
0.001160813
0.001166965
0.001173139
0.001179334
0.001185551
0.001191791
0.001198052
0.001204335
0.00121064
0.001216967
0.001223317
0.001229688
0.001236082
0.001242498
0.001248937
0.001255398
0.001261881
0.001268387
0.001274915
0.001281466
0.001288039
0.001294636
0.001301255
0.001307896
0.001314561
0.001321248
0.001327958
0.001334692
0.001341448
0.001348227
0.001355029
0.001361855
0.001368704
0.001375576
0.001382471
0.00138939
0.001396332
0.001403297
0.001410286
0.001417299
0.001424335
0.001431395
0.001438478
0.001445585
0.001452716
0.001459871
0.00146705
0.001474253
0.001481479
0.00148873
0.001496005
0.001503304
0.001510627
0.001517974
0.001525346
0.001532742
0.001540162
0.001547607
0.001555077
0.00156257
0.001570089
0.001577632
0.0015852
0.001592792
0.00160041
0.001608052
0.001615719
0.001623411
0.001631128
0.00163887
0.001646638
0.00165443
0.001662248
0.001670091
0.001677959
0.001685852
0.001693771
0.001701716
0.001709686
0.001717681
0.001725702
0.001733749
0.001741822
0.00174992
0.001758044
0.001766195
0.001774371
0.001782573
0.001790801
0.001799055
0.001807335
0.001815642
0.001823975
0.001832334
0.001840719
0.001849131
0.001857569
0.001866034
0.001874526
0.001883044
0.001891589
0.00190016
0.001908759
0.001917384
0.001926036
0.001934715
0.001943421
0.001952154
0.001960914
0.001969702
0.001978517
0.001987359
0.001996228
0.002005125
0.002014049
0.002023
0.00203198
0.002040986
0.002050021
0.002059083
0.002068173
0.002077291
0.002086437
0.00209561
0.002104812
0.002114042
0.0021233
0.002132586
0.0021419
0.002151243
0.002160614
0.002170013
0.002179441
0.002188897
0.002198382
0.002207895
0.002217437
0.002227008
0.002236608
0.002246237
0.002255894
0.00226558
0.002275296
0.00228504
0.002294814
0.002304617
0.002314449
0.00232431
0.002334201
0.002344121
0.002354071
0.00236405
0.002374059
0.002384098
0.002394166
0.002404264
0.002414392
0.002424549
0.002434737
0.002444955
0.002455202
0.00246548
0.002475788
0.002486127
0.002496495
0.002506894
0.002517324
0.002527784
0.002538274
0.002548795
0.002559347
0.002569929
0.002580542
0.002591186
0.002601861
0.002612567
0.002623304
0.002634072
0.002644871
0.002655702
0.002666563
0.002677456
0.002688381
0.002699336
0.002710324
0.002721343
0.002732393
0.002743475
0.002754589
0.002765735
0.002776913
0.002788122
0.002799364
0.002810637
0.002821943
0.002833281
0.002844651
0.002856053
0.002867488
0.002878956
0.002890455
0.002901988
0.002913553
0.00292515
0.00293678
0.002948444
0.00296014
0.002971869
0.002983631
0.002995426
0.003007254
0.003019115
0.00303101
0.003042937
0.003054899
0.003066893
0.003078922
0.003090983
0.003103079
0.003115208
0.003127371
0.003139567
0.003151798
0.003164062
0.003176361
0.003188694
0.00320106
0.003213461
0.003225897
0.003238366
0.00325087
0.003263409
0.003275982
0.003288589
0.003301231
0.003313908
0.00332662
0.003339367
0.003352148
0.003364965
0.003377817
0.003390704
0.003403626
0.003416583
0.003429575
0.003442603
0.003455667
0.003468766
0.0034819
0.00349507
0.003508276
0.003521518
0.003534796
0.003548109
0.003561459
0.003574844
0.003588266
0.003601724
0.003615218
0.003628749
0.003642316
0.003655919
0.003669559
0.003683235
0.003696949
0.003710699
0.003724485
0.003738309
0.00375217
0.003766067
0.003780002
0.003793974
0.003807983
0.003822029
0.003836113
0.003850234
0.003864393
0.003878589
0.003892823
0.003907095
0.003921404
0.003935752
0.003950137
0.00396456
0.003979021
0.003993521
0.004008058
0.004022634
0.004037249
0.004051901
0.004066592
0.004081322
0.00409609
0.004110897
0.004125743
0.004140628
0.004155552
0.004170514
0.004185516
0.004200556
0.004215636
0.004230756
0.004245914
0.004261112
0.00427635
0.004291627
0.004306944
0.0043223
0.004337696
0.004353132
0.004368608
0.004384124
0.00439968
0.004415277
0.004430913
0.00444659
0.004462307
0.004478065
0.004493863
0.004509701
0.004525581
0.004541501
0.004557462
0.004573464
0.004589506
0.00460559
0.004621715
0.004637881
0.004654089
0.004670337
0.004686627
0.004702959
0.004719332
0.004735747
0.004752204
0.004768702
0.004785242
0.004801824
0.004818448
0.004835115
0.004851823
0.004868574
0.004885367
0.004902202
0.00491908
0.004936
0.004952963
0.004969969
0.004987018
0.005004109
0.005021244
0.005038421
0.005055641
0.005072905
0.005090212
0.005107562
0.005124956
0.005142393
0.005159874
0.005177398
0.005194966
0.005212578
0.005230233
0.005247933
0.005265677
0.005283465
0.005301297
0.005319173
0.005337094
0.005355059
0.005373068
0.005391122
0.005409221
0.005427365
0.005445553
0.005463786
0.005482065
0.005500388
0.005518757
0.00553717
0.00555563
0.005574134
0.005592684
0.005611279
0.005629921
0.005648607
0.00566734
0.005686119
0.005704943
0.005723814
0.00574273
0.005761693
0.005780702
0.005799758
0.00581886
0.005838008
0.005857203
0.005876445
0.005895734
0.005915069
0.005934452
0.005953881
0.005973358
0.005992882
0.006012453
0.006032071
0.006051737
0.006071451
0.006091212
0.00611102
0.006130877
0.006150781
0.006170734
0.006190734
0.006210783
0.006230879
0.006251024
0.006271218
0.00629146
0.00631175
0.006332089
0.006352477
0.006372914
0.006393399
0.006413934
0.006434517
0.00645515
0.006475832
0.006496563
0.006517344
0.006538174
0.006559053
0.006579983
0.006600962
0.006621991
0.00664307
0.006664199
0.006685378
0.006706607
0.006727887
0.006749217
0.006770597
0.006792028
0.006813509
0.006835042
0.006856625
0.006878259
0.006899944
0.00692168
0.006943467
0.006965305
0.006987195
0.007009136
0.007031129
0.007053174
0.00707527
0.007097418
0.007119617
0.007141869
0.007164173
0.007186529
0.007208937
0.007231397
0.00725391
0.007276476
0.007299094
0.007321765
0.007344488
0.007367265
0.007390094
0.007412976
0.007435912
0.007458901
0.007481943
0.007505039
0.007528188
0.007551391
0.007574647
0.007597957
0.007621322
0.00764474
0.007668212
0.007691738
0.007715319
0.007738954
0.007762644
0.007786388
0.007810186
0.00783404
0.007857948
0.007881911
0.007905929
0.007930003
0.007954131
0.007978315
0.008002554
0.008026849
0.008051199
0.008075605
0.008100067
0.008124584
0.008149158
0.008173788
0.008198473
0.008223215
0.008248014
0.008272869
0.00829778
0.008322748
0.008347773
0.008372855
0.008397993
0.008423189
0.008448441
0.008473751
0.008499119
0.008524543
0.008550025
0.008575565
0.008601163
0.008626818
0.008652531
0.008678303
0.008704132
0.00873002
0.008755965
0.00878197
0.008808033
0.008834154
0.008860334
0.008886573
0.008912871
0.008939227
0.008965643
0.008992118
0.009018653
0.009045247
0.0090719
0.009098613
0.009125385
0.009152218
0.00917911
0.009206063
0.009233075
0.009260148
0.009287281
0.009314474
0.009341728
0.009369043
0.009396418
0.009423854
0.009451351
0.009478909
0.009506528
0.009534208
0.00956195
0.009589753
0.009617618
0.009645545
0.009673533
0.009701583
0.009729695
0.009757869
0.009786105
0.009814403
0.009842764
0.009871187
0.009899673
0.009928222
0.009956833
0.009985508
0.010014245
0.010043045
0.010071909
0.010100836
0.010129827
0.01015888
0.010187998
0.010217179
0.010246425
0.010275734
0.010305107
0.010334545
0.010364046
0.010393612
0.010423243
0.010452938
0.010482698
0.010512523
0.010542413
0.010572367
0.010602387
0.010632472
0.010662623
0.010692839
0.010723121
0.010753468
0.010783881
0.01081436
0.010844905
0.010875516
0.010906194
0.010936937
0.010967748
0.010998624
0.011029568
0.011060578
0.011091655
0.011122799
0.011154011
0.011185289
0.011216635
0.011248049
0.01127953
0.011311078
0.011342695
0.011374379
0.011406131
0.011437952
0.011469841
0.011501798
0.011533824
0.011565918
0.011598081
0.011630312
0.011662613
0.011694983
0.011727421
0.01175993
0.011792507
0.011825154
0.011857871
0.011890657
0.011923513
0.011956439
0.011989436
0.012022502
0.012055639
0.012088846
0.012122124
0.012155472
0.012188891
0.012222381
0.012255942
0.012289574
0.012323277
0.012357052
0.012390898
0.012424816
0.012458805
0.012492867
0.012527
0.012561205
0.012595483
0.012629832
0.012664255
0.012698749
0.012733317
0.012767957
0.01280267
0.012837456
0.012872315
0.012907247
0.012942253
0.012977332
0.013012485
0.013047712
0.013083012
0.013118387
0.013153835
0.013189358
0.013224955
0.013260626
0.013296372
0.013332193
0.013368089
0.013404059
0.013440105
0.013476225
0.013512421
0.013548693
0.01358504
0.013621463
0.013657961
0.013694536
0.013731186
0.013767913
0.013804716
0.013841595
0.013878551
0.013915583
0.013952693
0.013989879
0.014027142
0.014064483
0.014101901
0.014139396
0.014176968
0.014214619
0.014252347
0.014290153
0.014328037
0.014365999
0.01440404
0.014442159
0.014480357
0.014518633
0.014556988
0.014595422
0.014633935
0.014672527
0.014711199
0.01474995
0.01478878
0.01482769
0.014866681
0.014905751
0.014944901
0.014984131
0.015023442
0.015062833
0.015102305
0.015141857
0.01518149
0.015221205
0.015261
0.015300877
0.015340835
0.015380875
0.015420996
0.015461199
0.015501484
0.015541851
0.0155823
0.015622832
0.015663446
0.015704142
0.015744921
0.015785784
0.015826729
0.015867757
0.015908868
0.015950063
0.015991341
0.016032703
0.016074149
0.016115678
0.016157292
0.016198989
0.016240771
0.016282638
0.016324589
0.016366625
0.016408745
0.016450951
0.016493242
0.016535618
0.016578079
0.016620626
0.016663259
0.016705977
0.016748782
0.016791672
0.016834649
0.016877712
0.016920861
0.016964097
0.01700742
0.01705083
0.017094327
0.017137911
0.017181582
0.017225341
0.017269187
0.017313121
0.017357143
0.017401253
0.017445452
0.017489738
0.017534113
0.017578577
0.017623129
0.01766777
0.0177125
0.017757319
0.017802228
0.017847226
0.017892313
0.01793749
0.017982757
0.018028114
0.018073562
0.018119099
0.018164727
0.018210445
0.018256255
0.018302155
0.018348146
0.018394228
0.018440401
0.018486666
0.018533023
0.018579471
0.018626011
0.018672643
0.018719367
0.018766184
0.018813093
0.018860094
0.018907189
0.018954376
0.019001656
0.019049029
0.019096496
0.019144056
0.01919171
0.019239458
0.019287299
0.019335235
0.019383265
0.019431389
0.019479608
0.019527921
0.019576329
0.019624832
0.01967343
0.019722124
0.019770913
0.019819797
0.019868777
0.019917853
0.019967025
0.020016293
0.020065658
0.020115119
0.020164676
0.020214331
0.020264082
0.02031393
0.020363876
0.020413918
0.020464059
0.020514297
0.020564633
0.020615067
0.020665599
0.020716229
0.020766958
0.020817785
0.020868711
0.020919737
0.020970861
0.021022084
0.021073407
0.021124829
0.021176351
0.021227973
0.021279694
0.021331516
0.021383438
0.021435461
0.021487584
0.021539809
0.021592134
0.02164456
0.021697087
0.021749716
0.021802446
0.021855278
0.021908212
0.021961248
0.022014387
0.022067627
0.02212097
0.022174416
0.022227965
0.022281616
0.022335371
0.022389229
0.022443191
0.022497256
0.022551425
0.022605698
0.022660075
0.022714557
0.022769143
0.022823833
0.022878629
0.022933529
0.022988534
0.023043645
0.023098861
0.023154183
0.02320961
0.023265143
0.023320783
0.023376528
0.02343238
0.023488339
0.023544405
0.023600577
0.023656856
0.023713243
0.023769737
0.023826339
0.023883048
0.023939865
0.023996791
0.024053824
0.024110966
0.024168217
0.024225576
0.024283044
0.024340622
0.024398308
0.024456104
0.02451401
0.024572025
0.02463015
0.024688386
0.024746731
0.024805187
0.024863754
0.024922432
0.02498122
0.025040119
0.02509913
0.025158253
0.025217486
0.025276832
0.02533629
0.02539586
0.025455542
0.025515336
0.025575244
0.025635264
0.025695397
0.025755643
0.025816003
0.025876476
0.025937063
0.025997764
0.026058579
0.026119508
0.026180552
0.02624171
0.026302983
0.026364371
0.026425874
0.026487492
0.026549226
0.026611075
0.026673041
0.026735122
0.026797319
0.026859633
0.026922063
0.02698461
0.027047274
0.027110055
0.027172954
0.027235969
0.027299103
0.027362354
0.027425723
0.02748921
0.027552816
0.02761654
0.027680382
0.027744344
0.027808425
0.027872625
0.027936944
0.028001383
0.028065942
0.02813062
0.028195419
0.028260339
0.028325378
0.028390539
0.02845582
0.028521223
0.028586746
0.028652391
0.028718158
0.028784047
0.028850057
0.02891619
0.028982445
0.029048823
0.029115323
0.029181946
0.029248693
0.029315563
0.029382556
0.029449673
0.029516914
0.029584279
0.029651768
0.029719381
0.029787119
0.029854982
0.02992297
0.029991084
0.030059322
0.030127686
0.030196176
0.030264792
0.030333534
0.030402402
0.030471397
0.030540519
0.030609768
0.030679143
0.030748646
0.030818277
0.030888035
0.030957921
0.031027935
0.031098077
0.031168348
0.031238747
0.031309276
0.031379933
0.031450719
0.031521636
0.031592681
0.031663857
0.031735162
0.031806598
0.031878164
0.031949861
0.032021688
0.032093647
0.032165737
0.032237958
0.032310311
0.032382795
0.032455412
0.032528161
0.032601042
0.032674056
0.032747203
0.032820482
0.032893895
0.032967441
0.033041121
0.033114935
0.033188882
0.033262964
0.033337181
0.033411532
0.033486017
0.033560638
0.033635394
0.033710285
0.033785312
0.033860475
0.033935774
0.034011209
0.034086781
0.034162489
0.034238334
0.034314316
0.034390436
0.034466693
0.034543087
0.03461962
0.03469629
0.034773099
0.034850047
0.034927133
0.035004358
0.035081722
0.035159226
0.035236869
0.035314652
0.035392575
0.035470638
0.035548841
0.035627185
0.03570567
0.035784296
0.035863063
0.035941971
0.036021022
0.036100214
0.036179548
0.036259024
0.036338644
0.036418405
0.03649831
0.036578358
0.036658549
0.036738884
0.036819362
0.036899985
0.036980752
0.037061663
0.037142719
0.03722392
0.037305266
0.037386757
0.037468393
0.037550176
0.037632104
0.037714179
0.0377964
0.037878767
0.037961282
0.038043943
0.038126752
0.038209708
0.038292812
0.038376064
0.038459464
0.038543013
0.03862671
0.038710556
0.03879455
0.038878695
0.038962988
0.039047431
0.039132025
0.039216768
0.039301662
0.039386706
0.039471901
0.039557248
0.039642745
0.039728394
0.039814195
0.039900147
0.039986252
0.040072509
0.040158919
0.040245482
0.040332198
0.040419067
0.040506089
0.040593266
0.040680596
0.040768081
0.04085572
0.040943513
0.041031462
0.041119566
0.041207825
0.041296239
0.04138481
0.041473536
0.041562419
0.041651459
0.041740655
0.041830008
0.041919518
0.042009186
0.042099011
0.042188995
0.042279136
0.042369436
0.042459895
0.042550512
0.042641288
0.042732224
0.04282332
0.042914575
0.04300599
0.043097565
0.043189301
0.043281198
0.043373256
0.043465474
0.043557855
0.043650397
0.043743101
0.043835967
0.043928995
0.044022186
0.044115541
0.044209058
0.044302738
0.044396582
0.04449059
0.044584763
0.044679099
0.0447736
0.044868266
0.044963097
0.045058093
0.045153255
0.045248582
0.045344076
0.045439736
0.045535562
0.045631556
0.045727716
0.045824043
0.045920538
0.046017201
0.046114032
0.046211031
0.046308198
0.046405535
0.04650304
0.046600714
0.046698558
0.046796572
0.046894756
0.04699311
0.047091634
0.047190329
0.047289195
0.047388233
0.047487442
0.047586822
0.047686375
0.0477861
0.047885997
0.047986067
0.048086311
0.048186727
0.048287317
0.048388081
0.048489018
0.048590131
0.048691417
0.048792878
0.048894515
0.048996327
0.049098314
0.049200477
0.049302816
0.049405332
0.049508024
0.049610893
0.049713939
0.049817162
0.049920563
0.050024142
0.050127899
0.050231835
0.050335949
0.050440242
0.050544714
0.050649366
0.050754197
0.050859209
0.0509644
0.051069773
0.051175326
0.05128106
0.051386975
0.051493072
0.05159935
0.051705811
0.051812454
0.05191928
0.052026289
0.05213348
0.052240856
0.052348414
0.052456157
0.052564084
0.052672196
0.052780492
0.052888974
0.05299764
0.053106493
0.053215531
0.053324755
0.053434166
0.053543763
0.053653547
0.053763518
0.053873677
0.053984024
0.054094559
0.054205281
0.054316193
0.054427293
0.054538583
0.054650062
0.05476173
0.054873589
0.054985637
0.055097876
0.055210306
0.055322927
0.05543574
0.055548743
0.055661939
0.055775327
0.055888908
0.056002681
0.056116647
0.056230806
0.056345159
0.056459706
0.056574447
0.056689382
0.056804512
0.056919837
0.057035357
0.057151073
0.057266985
0.057383092
0.057499396
0.057615897
0.057732595
0.05784949
0.057966582
0.058083872
0.058201361
0.058319048
0.058436933
0.058555017
0.058673301
0.058791784
0.058910467
0.05902935
0.059148434
0.059267718
0.059387203
0.059506889
0.059626777
0.059746867
0.059867159
0.059987654
0.060108351
0.060229251
0.060350355
0.060471662
0.060593173
0.060714888
0.060836808
0.060958932
0.061081262
0.061203797
0.061326538
0.061449484
0.061572637
0.061695997
0.061819563
0.061943336
0.062067317
0.062191506
0.062315903
0.062440508
0.062565322
0.062690345
0.062815577
0.062941018
0.06306667
0.063192532
0.063318604
0.063444887
0.063571381
0.063698086
0.063825003
0.063952132
0.064079474
0.064207028
0.064334795
0.064462775
0.064590968
0.064719376
0.064847997
0.064976833
0.065105884
0.06523515
0.065364631
0.065494328
0.065624241
0.06575437
0.065884716
0.066015279
0.066146059
0.066277056
0.066408272
0.066539705
0.066671357
0.066803228
0.066935318
0.067067627
0.067200157
0.067332906
0.067465875
0.067599065
0.067732477
0.067866109
0.067999963
0.06813404
0.068268338
0.068402859
0.068537603
0.06867257
0.068807761
0.068943175
0.069078814
0.069214678
0.069350766
0.069487079
0.069623618
0.069760382
0.069897373
0.07003459
0.070172034
0.070309705
0.070447603
0.07058573
0.070724084
0.070862667
0.071001478
0.071140518
0.071279788
0.071419288
0.071559017
0.071698977
0.071839168
0.071979589
0.072120242
0.072261127
0.072402244
0.072543593
0.072685175
0.072826989
0.072969037
0.073111319
0.073253835
0.073396585
0.07353957
0.07368279
0.073826245
0.073969936
0.074113863
0.074258026
0.074402426
0.074547063
0.074691937
0.074837049
0.074982399
0.075127988
0.075273815
0.075419881
0.075566187
0.075712732
0.075859517
0.076006543
0.07615381
0.076301318
0.076449067
0.076597058
0.076745291
0.076893767
0.077042486
0.077191447
0.077340653
0.077490102
0.077639795
0.077789733
0.077939916
0.078090344
0.078241018
0.078391937
0.078543103
0.078694516
0.078846176
0.078998083
0.079150237
0.07930264
0.079455291
0.079608191
0.07976134
0.079914739
0.080068387
0.080222286
0.080376435
0.080530835
0.080685486
0.080840389
0.080995544
0.081150951
0.081306611
0.081462524
0.081618691
0.081775111
0.081931785
0.082088713
0.082245897
0.082403336
0.08256103
0.08271898
0.082877187
0.08303565
0.08319437
0.083353348
0.083512583
0.083672076
0.083831828
0.083991839
0.084152109
0.084312638
0.084473427
0.084634477
0.084795788
0.084957359
0.085119192
0.085281286
0.085443643
0.085606263
0.085769145
0.08593229
0.086095699
0.086259372
0.08642331
0.086587512
0.08675198
0.086916713
0.087081711
0.087246976
0.087412508
0.087578307
0.087744373
0.087910707
0.088077309
0.088244179
0.088411319
0.088578727
0.088746406
0.088914354
0.089082573
0.089251062
0.089419823
0.089588856
0.08975816
0.089927736
0.090097586
0.090267708
0.090438104
0.090608774
0.090779718
0.090950937
0.091122431
0.0912942
0.091466245
0.091638566
0.091811164
0.091984039
0.092157191
0.092330621
0.092504329
0.092678315
0.092852581
0.093027126
0.09320195
0.093377055
0.09355244
0.093728106
0.093904053
0.094080282
0.094256793
0.094433587
0.094610664
0.094788023
0.094965667
0.095143594
0.095321806
0.095500303
0.095679085
0.095858153
0.096037507
0.096217147
0.096397075
0.096577289
0.096757791
0.096938582
0.09711966
0.097301028
