packages/ociogen/ociogen-0.2.4.tar.gz/ociogen-0.2.4/OpenDRT_v1.0.0_full-config_v4/transfer_functions/oetf_canon_clog3_to_linear.spi1d
Version 1
From -0.15 1.2
Length 8192
Components 1
{
-0.282809368
-0.282455254
-0.282101507
-0.281748125
-0.281395107
-0.281042455
-0.280690166
-0.280338242
-0.27998668
-0.279635482
-0.279284647
-0.278934174
-0.278584063
-0.278234313
-0.277884925
-0.277535898
-0.277187231
-0.276838924
-0.276490977
-0.276143389
-0.27579616
-0.27544929
-0.275102778
-0.274756624
-0.274410827
-0.274065388
-0.273720305
-0.273375579
-0.273031208
-0.272687194
-0.272343534
-0.27200023
-0.27165728
-0.271314684
-0.270972442
-0.270630554
-0.270289019
-0.269947836
-0.269607006
-0.269266528
-0.268926401
-0.268586626
-0.268247201
-0.267908127
-0.267569404
-0.26723103
-0.266893005
-0.26655533
-0.266218004
-0.265881025
-0.265544395
-0.265208113
-0.264872178
-0.264536589
-0.264201348
-0.263866452
-0.263531903
-0.263197699
-0.26286384
-0.262530326
-0.262197156
-0.261864331
-0.261531849
-0.26119971
-0.260867915
-0.260536462
-0.260205352
-0.259874583
-0.259544156
-0.259214071
-0.258884326
-0.258554922
-0.258225858
-0.257897134
-0.257568749
-0.257240704
-0.256912997
-0.256585629
-0.256258599
-0.255931907
-0.255605552
-0.255279534
-0.254953852
-0.254628508
-0.254303499
-0.253978826
-0.253654488
-0.253330485
-0.253006816
-0.252683482
-0.252360482
-0.252037816
-0.251715483
-0.251393482
-0.251071814
-0.250750479
-0.250429475
-0.250108803
-0.249788462
-0.249468452
-0.249148772
-0.248829422
-0.248510403
-0.248191712
-0.247873351
-0.247555319
-0.247237615
-0.246920239
-0.246603191
-0.246286471
-0.245970077
-0.245654011
-0.24533827
-0.245022856
-0.244707768
-0.244393005
-0.244078567
-0.243764454
-0.243450665
-0.2431372
-0.242824059
-0.242511242
-0.242198747
-0.241886576
-0.241574726
-0.241263199
-0.240951994
-0.240641109
-0.240330546
-0.240020304
-0.239710382
-0.23940078
-0.239091498
-0.238782536
-0.238473892
-0.238165567
-0.237857561
-0.237549872
-0.237242502
-0.236935449
-0.236628713
-0.236322294
-0.236016191
-0.235710404
-0.235404934
-0.235099778
-0.234794938
-0.234490413
-0.234186202
-0.233882306
-0.233578723
-0.233275454
-0.232972498
-0.232669854
-0.232367524
-0.232065506
-0.231763799
-0.231462404
-0.231161321
-0.230860548
-0.230560086
-0.230259935
-0.229960093
-0.229660561
-0.229361338
-0.229062425
-0.22876382
-0.228465523
-0.228167535
-0.227869854
-0.227572481
-0.227275415
-0.226978655
-0.226682202
-0.226386056
-0.226090215
-0.22579468
-0.225499449
-0.225204524
-0.224909904
-0.224615587
-0.224321575
-0.224027866
-0.223734461
-0.223441359
-0.223148559
-0.222856062
-0.222563867
-0.222271973
-0.221980381
-0.221689091
-0.221398101
-0.221107411
-0.220817022
-0.220526933
-0.220237143
-0.219947653
-0.219658461
-0.219369568
-0.219080974
-0.218792678
-0.218504679
-0.218216978
-0.217929574
-0.217642467
-0.217355656
-0.217069141
-0.216782923
-0.216497
-0.216211372
-0.215926039
-0.215641001
-0.215356258
-0.215071808
-0.214787652
-0.21450379
-0.214220221
-0.213936945
-0.213653961
-0.213371269
-0.21308887
-0.212806762
-0.212524945
-0.21224342
-0.211962185
-0.211681241
-0.211400587
-0.211120223
-0.210840148
-0.210560362
-0.210280866
-0.210001658
-0.209722739
-0.209444107
-0.209165764
-0.208887707
-0.208609938
-0.208332456
-0.208055261
-0.207778351
-0.207501728
-0.20722539
-0.206949338
-0.206673571
-0.206398089
-0.206122891
-0.205847977
-0.205573348
-0.205299002
-0.205024939
-0.204751159
-0.204477662
-0.204204448
-0.203931515
-0.203658865
-0.203386496
-0.203114409
-0.202842602
-0.202571076
-0.202299831
-0.202028866
-0.20175818
-0.201487774
-0.201217648
-0.2009478
-0.200678231
-0.200408941
-0.200139928
-0.199871194
-0.199602737
-0.199334557
-0.199066654
-0.198799028
-0.198531678
-0.198264605
-0.197997807
-0.197731285
-0.197465038
-0.197199066
-0.196933369
-0.196667946
-0.196402797
-0.196137922
-0.19587332
-0.195608992
-0.195344937
-0.195081155
-0.194817645
-0.194554407
-0.194291441
-0.194028746
-0.193766323
-0.193504171
-0.19324229
-0.192980679
-0.192719338
-0.192458268
-0.192197466
-0.191936935
-0.191676672
-0.191416678
-0.191156952
-0.190897495
-0.190638306
-0.190379384
-0.19012073
-0.189862343
-0.189604223
-0.18934637
-0.189088782
-0.188831461
-0.188574406
-0.188317616
-0.188061091
-0.187804831
-0.187548836
-0.187293105
-0.187037638
-0.186782435
-0.186527496
-0.18627282
-0.186018407
-0.185764257
-0.185510369
-0.185256743
-0.18500338
-0.184750278
-0.184497437
-0.184244858
-0.183992539
-0.183740481
-0.183488683
-0.183237146
-0.182985868
-0.18273485
-0.182484091
-0.18223359
-0.181983349
-0.181733366
-0.181483641
-0.181234174
-0.180984965
-0.180736013
-0.180487319
-0.180238881
-0.179990699
-0.179742774
-0.179495106
-0.179247692
-0.179000535
-0.178753632
-0.178506985
-0.178260592
-0.178014454
-0.17776857
-0.17752294
-0.177277564
-0.177032441
-0.176787571
-0.176542954
-0.17629859
-0.176054478
-0.175810618
-0.17556701
-0.175323654
-0.175080549
-0.174837695
-0.174595092
-0.174352739
-0.174110637
-0.173868785
-0.173627182
-0.173385829
-0.173144726
-0.172903871
-0.172663265
-0.172422908
-0.172182798
-0.171942937
-0.171703324
-0.171463958
-0.171224839
-0.170985967
-0.170747342
-0.170508963
-0.170270831
-0.170032944
-0.169795303
-0.169557908
-0.169320757
-0.169083852
-0.168847191
-0.168610775
-0.168374603
-0.168138675
-0.16790299
-0.167667549
-0.167432351
-0.167197396
-0.166962683
-0.166728213
-0.166493985
-0.166259999
-0.166026255
-0.165792752
-0.16555949
-0.16532647
-0.165093689
-0.16486115
-0.16462885
-0.16439679
-0.16416497
-0.16393339
-0.163702048
-0.163470946
-0.163240082
-0.163009456
-0.162779069
-0.16254892
-0.162319008
-0.162089334
-0.161859897
-0.161630697
-0.161401734
-0.161173007
-0.160944516
-0.160716262
-0.160488243
-0.160260459
-0.160032911
-0.159805598
-0.15957852
-0.159351676
-0.159125066
-0.158898691
-0.158672549
-0.158446641
-0.158220966
-0.157995524
-0.157770315
-0.157545339
-0.157320594
-0.157096083
-0.156871802
-0.156647754
-0.156423937
-0.156200351
-0.155976996
-0.155753872
-0.155530978
-0.155308314
-0.15508588
-0.154863676
-0.154641702
-0.154419957
-0.15419844
-0.153977153
-0.153756094
-0.153535263
-0.153314661
-0.153094286
-0.152874139
-0.152654219
-0.152434527
-0.152215061
-0.151995822
-0.151776809
-0.151558023
-0.151339462
-0.151121127
-0.150903018
-0.150685134
-0.150467475
-0.150250041
-0.150032831
-0.149815846
-0.149599084
-0.149382547
-0.149166233
-0.148950143
-0.148734276
-0.148518631
-0.14830321
-0.148088011
-0.147873034
-0.147658279
-0.147443746
-0.147229435
-0.147015345
-0.146801476
-0.146587828
-0.1463744
-0.146161193
-0.145948207
-0.14573544
-0.145522893
-0.145310565
-0.145098457
-0.144886567
-0.144674897
-0.144463445
-0.144252212
-0.144041196
-0.143830399
-0.143619819
-0.143409457
-0.143199312
-0.142989384
-0.142779673
-0.142570179
-0.142360901
-0.142151839
-0.141942993
-0.141734362
-0.141525947
-0.141317748
-0.141109763
-0.140901993
-0.140694438
-0.140487097
-0.14027997
-0.140073057
-0.139866358
-0.139659872
-0.1394536
-0.139247541
-0.139041694
-0.13883606
-0.138630638
-0.138425429
-0.138220431
-0.138015646
-0.137811071
-0.137606708
-0.137402556
-0.137198615
-0.136994884
-0.136791364
-0.136588054
-0.136384954
-0.136182064
-0.135979384
-0.135776912
-0.13557465
-0.135372597
-0.135170752
-0.134969116
-0.134767688
-0.134566468
-0.134365456
-0.134164651
-0.133964054
-0.133763664
-0.133563481
-0.133363505
-0.133163735
-0.132964172
-0.132764815
-0.132565663
-0.132366717
-0.132167977
-0.131969442
-0.131771112
-0.131572987
-0.131375066
-0.13117735
-0.130979838
-0.13078253
-0.130585426
-0.130388526
-0.130191828
-0.129995334
-0.129799043
-0.129602955
-0.129407069
-0.129211385
-0.129015904
-0.128820624
-0.128625546
-0.128430669
-0.128235994
-0.12804152
-0.127847247
-0.127653174
-0.127459302
-0.12726563
-0.127072158
-0.126878885
-0.126685813
-0.12649294
-0.126300266
-0.126107791
-0.125915514
-0.125723437
-0.125531557
-0.125339876
-0.125148393
-0.124957108
-0.12476602
-0.12457513
-0.124384436
-0.12419394
-0.12400364
-0.123813537
-0.12362363
-0.12343392
-0.123244405
-0.123055086
-0.122865962
-0.122677034
-0.122488301
-0.122299763
-0.12211142
-0.121923271
-0.121735316
-0.121547556
-0.121359989
-0.121172616
-0.120985437
-0.120798451
-0.120611658
-0.120425058
-0.120238651
-0.120052436
-0.119866414
-0.119680583
-0.119494945
-0.119309498
-0.119124243
-0.118939179
-0.118754307
-0.118569625
-0.118385134
-0.118200833
-0.118016723
-0.117832803
-0.117649073
-0.117465533
-0.117282182
-0.117099021
-0.116916049
-0.116733265
-0.116550671
-0.116368265
-0.116186047
-0.116004018
-0.115822177
-0.115640523
-0.115459057
-0.115277779
-0.115096687
-0.114915783
-0.114735066
-0.114554535
-0.114374191
-0.114194033
-0.114014061
-0.113834274
-0.113654674
-0.113475259
-0.113296029
-0.113116985
-0.112938125
-0.11275945
-0.112580959
-0.112402653
-0.112224531
-0.112046593
-0.111868839
-0.111691269
-0.111513881
-0.111336677
-0.111159656
-0.110982818
-0.110806162
-0.110629689
-0.110453398
-0.11027729
-0.110101363
-0.109925617
-0.109750054
-0.109574671
-0.10939947
-0.10922445
-0.10904961
-0.108874951
-0.108700473
-0.108526174
-0.108352056
-0.108178117
-0.108004358
-0.107830779
-0.107657378
-0.107484157
-0.107311115
-0.107138251
-0.106965566
-0.10679306
-0.106620731
-0.106448581
-0.106276608
-0.106104813
-0.105933195
-0.105761755
-0.105590491
-0.105419405
-0.105248495
-0.105077761
-0.104907204
-0.104736824
-0.104566619
-0.10439659
-0.104226736
-0.104057058
-0.103887555
-0.103718227
-0.103549074
-0.103380096
-0.103211293
-0.103042663
-0.102874208
-0.102705927
-0.102537819
-0.102369886
-0.102202125
-0.102034538
-0.101867124
-0.101699883
-0.101532814
-0.101365919
-0.101199195
-0.101032644
-0.100866264
-0.100700057
-0.100534021
-0.100368157
-0.100202464
-0.100036942
-0.099871591
-0.099706411
-0.099541401
-0.099376562
-0.099211893
-0.099047394
-0.098883065
-0.098718906
-0.098554916
-0.098391095
-0.098227444
-0.098063962
-0.097900649
-0.097737504
-0.097574528
-0.09741172
-0.09724908
-0.097086609
-0.096924305
-0.096762168
-0.096600199
-0.096438398
-0.096276763
-0.096115296
-0.095953995
-0.095792861
-0.095631893
-0.095471091
-0.095310456
-0.095149986
-0.094989682
-0.094829544
-0.094669571
-0.094509763
-0.094350121
-0.094190643
-0.09403133
-0.093872181
-0.093713197
-0.093554377
-0.093395721
-0.093237229
-0.093078901
-0.092920736
-0.092762734
-0.092604896
-0.09244722
-0.092289708
-0.092132358
-0.091975171
-0.091818146
-0.091661283
-0.091504582
-0.091348043
-0.091191666
-0.09103545
-0.090879395
-0.090723502
-0.09056777
-0.090412198
-0.090256787
-0.090101537
-0.089946447
-0.089791517
-0.089636747
-0.089482138
-0.089327687
-0.089173396
-0.089019265
-0.088865293
-0.08871148
-0.088557825
-0.08840433
-0.088250992
-0.088097814
-0.087944793
-0.087791931
-0.087639226
-0.087486679
-0.087334289
-0.087182057
-0.087029983
-0.086878065
-0.086726304
-0.0865747
-0.086423252
-0.086271961
-0.086120826
-0.085969848
-0.085819025
-0.085668358
-0.085517846
-0.08536749
-0.085217289
-0.085067244
-0.084917353
-0.084767617
-0.084618036
-0.084468609
-0.084319336
-0.084170218
-0.084021254
-0.083872444
-0.083723787
-0.083575284
-0.083426934
-0.083278737
-0.083130694
-0.082982803
-0.082835065
-0.08268748
-0.082540047
-0.082392766
-0.082245637
-0.082098661
-0.081951836
-0.081805163
-0.081658641
-0.081512271
-0.081366051
-0.081219983
-0.081074066
-0.080928299
-0.080782683
-0.080637217
-0.080491902
-0.080346737
-0.080201721
-0.080056855
-0.079912139
-0.079767573
-0.079623155
-0.079478887
-0.079334768
-0.079190798
-0.079046976
-0.078903303
-0.078759778
-0.078616401
-0.078473173
-0.078330092
-0.07818716
-0.078044375
-0.077901737
-0.077759247
-0.077616903
-0.077474707
-0.077332658
-0.077190755
-0.077048999
-0.076907389
-0.076765926
-0.076624609
-0.076483437
-0.076342412
-0.076201532
-0.076060797
-0.075920208
-0.075779764
-0.075639466
-0.075499312
-0.075359302
-0.075219438
-0.075079718
-0.074940142
-0.07480071
-0.074661422
-0.074522279
-0.074383278
-0.074244422
-0.074105709
-0.073967139
-0.073828712
-0.073690428
-0.073552287
-0.073414289
-0.073276433
-0.073138719
-0.073001148
-0.072863719
-0.072726432
-0.072589286
-0.072452282
-0.07231542
-0.072178699
-0.072042119
-0.071905681
-0.071769383
-0.071633226
-0.07149721
-0.071361334
-0.071225598
-0.071090003
-0.070954547
-0.070819232
-0.070684056
-0.07054902
-0.070414123
-0.070279366
-0.070144748
-0.070010268
-0.069875928
-0.069741727
-0.069607664
-0.069473739
-0.069339953
-0.069206305
-0.069072795
-0.068939423
-0.068806189
-0.068673092
-0.068540133
-0.068407311
-0.068274626
-0.068142078
-0.068009667
-0.067877393
-0.067745256
-0.067613255
-0.06748139
-0.067349662
-0.067218069
-0.067086613
-0.066955292
-0.066824107
-0.066693057
-0.066562143
-0.066431363
-0.066300719
-0.06617021
-0.066039836
-0.065909596
-0.065779491
-0.06564952
-0.065519683
-0.065389981
-0.065260412
-0.065130978
-0.065001677
-0.064872509
-0.064743475
-0.064614574
-0.064485806
-0.064357172
-0.06422867
-0.0641003
-0.063972064
-0.06384396
-0.063715988
-0.063588148
-0.06346044
-0.063332865
-0.063205421
-0.063078108
-0.062950927
-0.062823878
-0.062696959
-0.062570172
-0.062443516
-0.06231699
-0.062190595
-0.062064331
-0.061938197
-0.061812193
-0.06168632
-0.061560576
-0.061434963
-0.061309479
-0.061184124
-0.0610589
-0.060933804
-0.060808838
-0.060684
-0.060559292
-0.060434712
-0.060310262
-0.060185939
-0.060061745
-0.059937679
-0.059813742
-0.059689932
-0.059566251
-0.059442697
-0.05931927
-0.059195971
-0.0590728
-0.058949755
-0.058826838
-0.058704048
-0.058581384
-0.058458848
-0.058336437
-0.058214153
-0.058091996
-0.057969964
-0.057848059
-0.05772628
-0.057604626
-0.057483098
-0.057361695
-0.057240418
-0.057119266
-0.056998239
-0.056877338
-0.056756561
-0.056635908
-0.056515381
-0.056394978
-0.056274699
-0.056154544
-0.056034514
-0.055914607
-0.055794825
-0.055675166
-0.05555563
-0.055436218
-0.05531693
-0.055197764
-0.055078722
-0.054959803
-0.054841006
-0.054722332
-0.054603781
-0.054485352
-0.054367046
-0.054248861
-0.054130799
-0.054012858
-0.05389504
-0.053777343
-0.053659768
-0.053542314
-0.053424981
-0.05330777
-0.053190679
-0.05307371
-0.052956861
-0.052840133
-0.052723526
-0.052607039
-0.052490672
-0.052374426
-0.052258299
-0.052142293
-0.052026406
-0.051910639
-0.051794991
-0.051679463
-0.051564055
-0.051448765
-0.051333595
-0.051218543
-0.05110361
-0.050988796
-0.050874101
-0.050759524
-0.050645065
-0.050530725
-0.050416503
-0.050302398
-0.050188412
-0.050074543
-0.049960792
-0.049847158
-0.049733642
-0.049620242
-0.04950696
-0.049393795
-0.049280747
-0.049167816
-0.049055001
-0.048942303
-0.048829721
-0.048717255
-0.048604906
-0.048492673
-0.048380555
-0.048268553
-0.048156667
-0.048044897
-0.047933242
-0.047821702
-0.047710278
-0.047598968
-0.047487774
-0.047376694
-0.047265729
-0.047154879
-0.047044143
-0.046933521
-0.046823014
-0.046712621
-0.046602342
-0.046492177
-0.046382125
-0.046272187
-0.046162363
-0.046052652
-0.045943055
-0.045833571
-0.045724199
-0.045614941
-0.045505796
-0.045396763
-0.045287843
-0.045179035
-0.04507034
-0.044961757
-0.044853286
-0.044744927
-0.04463668
-0.044528545
-0.044420522
-0.04431261
-0.044204809
-0.04409712
-0.043989542
-0.043882076
-0.04377472
-0.043667475
-0.043560341
-0.043453317
-0.043346404
-0.043239602
-0.043132909
-0.043026327
-0.042919855
-0.042813493
-0.042707241
-0.042601099
-0.042495066
-0.042389142
-0.042283328
-0.042177624
-0.042072028
-0.041966542
-0.041861164
-0.041755896
-0.041650736
-0.041545685
-0.041440742
-0.041335907
-0.041231181
-0.041126563
-0.041022053
-0.040917651
-0.040813357
-0.04070917
-0.040605091
-0.04050112
-0.040397256
-0.040293499
-0.04018985
-0.040086307
-0.039982871
-0.039879543
-0.03977632
-0.039673205
-0.039570196
-0.039467293
-0.039364497
-0.039261807
-0.039159223
-0.039056745
-0.038954372
-0.038852106
-0.038749945
-0.038647889
-0.038545939
-0.038444094
-0.038342355
-0.03824072
-0.038139191
-0.038037766
-0.037936446
-0.037835231
-0.03773412
-0.037633114
-0.037532212
-0.037431414
-0.03733072
-0.03723013
-0.037129644
-0.037029262
-0.036928984
-0.036828809
-0.036728738
-0.03662877
-0.036528905
-0.036429143
-0.036329485
-0.036229929
-0.036130476
-0.036031126
-0.035931878
-0.035832733
-0.035733691
-0.03563475
-0.035535912
-0.035437176
-0.035338542
-0.03524001
-0.035141579
-0.03504325
-0.034945023
-0.034846897
-0.034748873
-0.034650949
-0.034553127
-0.034455406
-0.034357786
-0.034260266
-0.034162848
-0.03406553
-0.033968312
-0.033871195
-0.033774178
-0.033677262
-0.033580445
-0.033483728
-0.033387112
-0.033290595
-0.033194178
-0.03309786
-0.033001642
-0.032905523
-0.032809504
-0.032713583
-0.032617762
-0.03252204
-0.032426416
-0.032330891
-0.032235465
-0.032140138
-0.032044909
-0.031949778
-0.031854746
-0.031759811
-0.031664975
-0.031570237
-0.031475596
-0.031381054
-0.031286609
-0.031192261
-0.031098011
-0.031003858
-0.030909803
-0.030815844
-0.030721983
-0.030628218
-0.030534551
-0.03044098
-0.030347506
-0.030254128
-0.030160847
-0.030067662
-0.029974573
-0.029881581
-0.029788684
-0.029695884
-0.029603179
-0.02951057
-0.029418057
-0.029325639
-0.029233317
-0.02914109
-0.029048958
-0.028956922
-0.02886498
-0.028773134
-0.028681382
-0.028589725
-0.028498163
-0.028406695
-0.028315322
-0.028224043
-0.028132858
-0.028041768
-0.027950771
-0.027859869
-0.02776906
-0.027678346
-0.027587725
-0.027497197
-0.027406763
-0.027316423
-0.027226175
-0.027136021
-0.027045961
-0.026955993
-0.026866118
-0.026776335
-0.026686646
-0.026597049
-0.026507545
-0.026418133
-0.026328813
-0.026239586
-0.026150451
-0.026061408
-0.025972457
-0.025883598
-0.02579483
-0.025706154
-0.02561757
-0.025529077
-0.025440676
-0.025352366
-0.025264147
-0.02517602
-0.025087983
-0.025000037
-0.024912182
-0.024824418
-0.024736744
-0.024649161
-0.024561669
-0.024474266
-0.024386955
-0.024299733
-0.024212601
-0.024125559
-0.024038608
-0.023951746
-0.023864973
-0.023778291
-0.023691697
-0.023605194
-0.023518779
-0.023432454
-0.023346218
-0.023260071
-0.023174013
-0.023088044
-0.023002164
-0.022916372
-0.022830669
-0.022745055
-0.022659529
-0.022574091
-0.022488741
-0.02240348
-0.022318307
-0.022233221
-0.022148224
-0.022063314
-0.021978492
-0.021893758
-0.021809111
-0.021724552
-0.021640079
-0.021555695
-0.021471397
-0.021387186
-0.021303063
-0.021219026
-0.021135076
-0.021051212
-0.020967436
-0.020883745
-0.020800142
-0.020716624
-0.020633193
-0.020549848
-0.020466589
-0.020383416
-0.020300329
-0.020217328
-0.020134413
-0.020051583
-0.019968838
-0.019886179
-0.019803606
-0.019721118
-0.019638715
-0.019556397
-0.019474164
-0.019392016
-0.019309953
-0.019227974
-0.019146081
-0.019064271
-0.018982547
-0.018900907
-0.018819351
-0.018737879
-0.018656491
-0.018575188
-0.018493968
-0.018412833
-0.018331781
-0.018250813
-0.018169928
-0.018089127
-0.01800841
-0.017927775
-0.017847224
-0.017766757
-0.017686372
-0.01760607
-0.017525852
-0.017445716
-0.017365663
-0.017285693
-0.017205805
-0.017125999
-0.017046277
-0.016966636
-0.016887078
-0.016807602
-0.016728208
-0.016648896
-0.016569665
-0.016490517
-0.016411451
-0.016332466
-0.016253562
-0.016174741
-0.016096
-0.016017341
-0.015938763
-0.015860266
-0.015781851
-0.015703516
-0.015625262
-0.015547089
-0.015468997
-0.015390986
-0.015313055
-0.015235204
-0.015157434
-0.015079744
-0.015002135
-0.014924605
-0.014847156
-0.014769787
-0.014692497
-0.014615288
-0.014538158
-0.014461108
-0.014384137
-0.014307246
-0.014230434
-0.014153702
-0.014077048
-0.014000475
-0.01392398
-0.013847564
-0.013771227
-0.013694969
-0.013618789
-0.013542688
-0.013466666
-0.013390723
-0.013314858
-0.013239071
-0.013163362
-0.013087732
-0.01301218
-0.012936705
-0.012861309
-0.012785991
-0.01271075
-0.012635587
-0.012560492
-0.012485405
-0.012410318
-0.01233523
-0.012260143
-0.012185056
-0.012109968
-0.012034881
-0.011959793
-0.011884706
-0.011809619
-0.011734531
-0.011659444
-0.011584357
-0.011509269
-0.011434182
-0.011359095
-0.011284007
-0.01120892
-0.011133833
-0.011058745
-0.010983658
-0.010908571
-0.010833483
-0.010758396
-0.010683309
-0.010608221
-0.010533134
-0.010458047
-0.010382959
-0.010307872
-0.010232784
-0.010157697
-0.01008261
-0.010007522
-0.009932435
-0.009857348
-0.00978226
-0.009707173
-0.009632086
-0.009556998
-0.009481911
-0.009406824
-0.009331736
-0.009256649
-0.009181562
-0.009106474
-0.009031387
-0.0089563
-0.008881212
-0.008806125
-0.008731038
-0.00865595
-0.008580863
-0.008505776
-0.008430688
-0.008355601
-0.008280513
-0.008205426
-0.008130339
-0.008055251
-0.007980164
-0.007905077
-0.007829989
-0.007754902
-0.007679815
-0.007604727
-0.00752964
-0.007454553
-0.007379465
-0.007304378
-0.007229291
-0.007154203
-0.007079116
-0.007004029
-0.006928941
-0.006853854
-0.006778767
-0.006703679
-0.006628592
-0.006553505
-0.006478417
-0.00640333
-0.006328242
-0.006253155
-0.006178068
-0.00610298
-0.006027893
-0.005952806
-0.005877718
-0.005802631
-0.005727544
-0.005652456
-0.005577369
-0.005502282
-0.005427194
-0.005352107
-0.00527702
-0.005201932
-0.005126845
-0.005051758
-0.00497667
-0.004901583
-0.004826496
-0.004751408
-0.004676321
-0.004601233
-0.004526146
-0.004451059
-0.004375971
-0.004300884
-0.004225797
-0.004150709
-0.004075622
-0.004000535
-0.003925447
-0.00385036
-0.003775273
-0.003700185
-0.003625098
-0.003550011
-0.003474923
-0.003399836
-0.003324749
-0.003249661
-0.003174574
-0.003099487
-0.003024399
-0.002949312
-0.002874225
-0.002799137
-0.00272405
-0.002648962
-0.002573875
-0.002498788
-0.0024237
-0.002348613
-0.002273526
-0.002198438
-0.002123351
-0.002048264
-0.001973176
-0.001898089
-0.001823002
-0.001747914
-0.001672827
-0.00159774
-0.001522652
-0.001447565
-0.001372478
-0.00129739
-0.001222303
-0.001147216
-0.001072128
-0.000997041
-0.000921953
-0.000846866
-0.000771779
-0.000696691
-0.000621604
-0.000546517
-0.000471429
-0.000396342
-0.000321255
-0.000246167
-0.00017108
-9.5993e-05
-2.0905e-05
5.4182e-05
0.000129269
0.000204357
0.000279444
0.000354531
0.000429619
0.000504706
0.000579793
0.000654881
0.000729968
0.000805055
0.000880143
0.00095523
0.001030318
0.001105405
0.001180492
0.00125558
0.001330667
0.001405754
0.001480842
0.001555929
0.001631016
0.001706104
0.001781191
0.001856278
0.001931366
0.002006453
0.00208154
0.002156628
0.002231715
0.002306802
0.00238189
0.002456977
0.002532064
0.002607152
0.002682239
0.002757326
0.002832414
0.002907501
0.002982589
0.003057676
0.003132763
0.003207851
0.003282938
0.003358025
0.003433113
0.0035082
0.003583287
0.003658375
0.003733462
0.003808549
0.003883637
0.003958724
0.004033811
0.004108899
0.004183986
0.004259073
0.004334161
0.004409248
0.004484335
0.004559423
0.00463451
0.004709598
0.004784685
0.004859772
0.00493486
0.005009947
0.005085034
0.005160122
0.005235209
0.005310296
0.005385384
0.005460471
0.005535558
0.005610646
0.005685733
0.00576082
0.005835908
0.005910995
0.005986082
0.00606117
0.006136257
0.006211344
0.006286432
0.006361519
0.006436606
0.006511694
0.006586781
0.006661869
0.006736956
0.006812043
0.006887131
0.006962218
0.007037305
0.007112393
0.00718748
0.007262567
0.007337655
0.007412742
0.007487829
0.007562917
0.007638004
0.007713091
0.007788179
0.007863266
0.007938353
0.008013441
0.008088528
0.008163615
0.008238703
0.00831379
0.008388878
0.008463965
0.008539052
0.00861414
0.008689227
0.008764314
0.008839402
0.008914489
0.008989576
0.009064664
0.009139751
0.009214838
0.009289926
0.009365013
0.0094401
0.009515188
0.009590275
0.009665362
0.00974045
0.009815537
0.009890624
0.009965712
0.010040799
0.010115886
0.010190974
0.010266061
0.010341149
0.010416236
0.010491323
0.010566411
0.010641498
0.010716585
0.010791673
0.01086676
0.010941847
0.011016935
0.011092022
0.011167109
0.011242197
0.011317284
0.011392371
0.011467459
0.011542546
0.011617633
0.011692721
0.011767808
0.011842895
0.011917983
0.01199307
0.012068157
0.012143245
0.012218332
0.01229342
0.012368507
0.012443594
0.012518682
0.012593769
0.012668888
0.012744085
0.01281936
0.012894713
0.012970144
0.013045653
0.01312124
0.013196905
0.013272648
0.013348469
0.013424369
0.013500348
0.013576405
0.01365254
0.013728754
0.013805047
0.013881419
0.01395787
0.0140344
0.014111009
0.014187698
0.014264465
0.014341312
0.014418238
0.014495244
0.01457233
0.014649495
0.01472674
0.014804065
0.01488147
0.014958954
0.015036519
0.015114164
0.01519189
0.015269695
